launcher/android/assets/skins/day/svg/cito.svg

<svg enable-background="new 0 0 220.00 220.00" height="220" viewBox="0 0 220 220" width="220" xmlns="http://www.w3.org/2000/svg" xmlns:xlink="http://www.w3.org/1999/xlink"><linearGradient id="a"><stop offset="0" stop-color="#f3f8f8"/><stop offset="1" stop-color="#00eefc"/></linearGradient><radialGradient id="b" cx="73.6056" cy="132.094" gradientUnits="userSpaceOnUse" r="39.2039" xlink:href="#a"/><radialGradient id="c" cx="70.8741" cy="101.881" gradientUnits="userSpaceOnUse" r="9.56018" xlink:href="#a"/><g stroke-linejoin="round"><ellipse cx="109.149" cy="109.225" fill="#16376c" rx="96.8333" ry="97.6667" stroke-width=".2"/><path d="m112.649 12.7246c37.984 4.3219 55.252 23.149 45.667 21.8333-34-4.6668-42.077 5.6091-42.667 6-28.4167 18.8332-19.9528 47.8455-5.667 66.3331 28.334 36.667 12 61.334 3.334 70-29.7746 29.775-99.0002 2.333-97.5003-66.5 1.175-53.9264 43.691-103.71311 96.8333-97.6664z" fill="#339b2c" stroke-width=".2"/><ellipse cx="107.441" cy="109.808" fill="none" rx="96.8334" ry="97.6667" stroke="#16376c" stroke-width="5"/><g fill="#fff"><path d="m47.6566 170.219h17.1693l.7804-25.537 2.3413-8.992 4.6825-5.035 5.8532.719 6.2434 3.957 8.5847 10.79 3.5118 2.517 8.5848.72h4.682l.391-6.834-12.8774-11.869-8.9748-5.755-7.8042-4.316 9.7552-11.15 5.0728-9.7107 1.951-4.6757-7.8042 2.8774-8.1944 8.992-5.8532 5.035-3.9021 1.799-7.8042-2.878-4.6826-1.079-2.7314 2.877v-4.316l-1.5608-3.237-11.3162-10.7897-3.5119-.3598.3902 6.1145 6.6336 7.913 3.5119 1.798h-14.0477l4.2925 5.035 12.4867-1.078-6.6337 3.956-4.2922 2.517-.7806 3.238 3.9023.719 3.5118-1.799 4.2924-2.517 3.1217-.36 3.1217 4.316-3.512 8.632-3.5118 5.395-3.1217 7.913-1.9511 8.992z" stroke="url(#b)"/><path d="m70.6791 94.688-4.6826 1.0789-2.3412 3.5967-1.1707 5.7544 2.3413 3.237 3.1217-.719 1.1707-2.518 2.8616.24.26 1.918 1.821 1.679 3.1217-1.679.9105-3.596 1.1707-3.9567-2.3413-3.9564z" stroke="url(#c)"/><path d="m142.684 104.146c-5.433-.536-15.371.242-17.819-2.761-2.447-3.0035 2.597-9.7872 4.774-14.4663 2.177-4.6792 1.487-7.2536-2.587-3.5133-4.075 3.7404-11.533 13.7959-11.203 19.0516.331 5.255 8.449 5.711 15.433 5.899s12.834.107 15.297-.858c2.462-.965 1.537-2.815-3.895-3.352z" stroke="#fff"/><path d="m119.214 80.9888c-1.614-.1586 1.022-1.7761 4.432-3.593 3.41-1.8165 7.594-3.8318 9.745-4.5314 2.152-.6993 2.271-.0826 3.456 3.6232 1.185 3.7059 3.436 10.5007 2.899 11.3587-.537.8581-3.863-4.2208-8.458-6.1099-4.595-1.8892-10.46-.5888-12.074-.7476z" stroke="#fff"/><path d="m177.268 83.4004c2.199 4.4943 7.918 11.838 6.247 15.2437-1.672 3.4059-10.733 2.8729-16.333 3.5189-5.599.646-7.736 2.47-2.093 3.77 5.643 1.299 19.066 2.074 23.967-.811s1.282-9.4286-2.03-14.9562c-3.311-5.5275-6.313-10.0386-8.475-11.4714-2.162-1.4331-3.483.2116-1.283 4.706z" stroke="#fff"/><path d="m166.678 113.238c.655 1.336-2.223.093-5.679-1.651-3.457-1.745-7.491-3.992-9.241-5.316s-1.215-1.726 1.764-4.501c2.98-2.7746 8.405-7.9232 9.501-7.9343 1.096-.011-2.138 5.1156-1.661 9.6353.476 4.52 4.662 8.432 5.316 9.767z" stroke="#fff"/><path d="m141.146 66.9021c3.234-3.958 7.453-12.0793 11.572-12.4819 4.119-.4025 8.136 6.9136 11.558 10.947 3.423 4.0332 6.25 4.7837 4.681-.2562s-7.533-15.8701-12.765-18.2409c-5.231-2.371-9.73 3.7171-13.403 9.0569s-6.52 9.9314-6.821 12.3296c-.301 2.3985 1.945 2.6035 5.178-1.3545z" stroke="#fff"/><path d="m175.205 60.2213c.96-1.1767 1.201 1.6833 1.248 5.2447.046 3.5614-.103 7.8238-.505 9.8473-.401 2.0236-1.055 1.8081-5.22.8773s-11.841-2.577-12.4-3.4242c-.558-.8469 6-.8947 10.12-3.525 4.118-2.6305 5.797-7.8437 6.757-9.0201z" stroke="#fff"/></g><path d="m188.435 15.1286h-5.6v15.9599h-4.48v-15.9599h-5.6v-3.64h15.68z" stroke-width=".2"/><path d="m213.355 31.0885h-4.48v-11.7293c0-1.2659.057-2.6643.171-4.1956h-.11c-.227 1.2046-.433 2.0708-.617 2.5988l-4.594 13.3261h-3.609l-4.677-13.1905c-.128-.3559-.334-1.2674-.617-2.7344h-.122c.117 1.9337.175 3.6296.175 5.088v10.8369h-3.92v-19.5999h6.409l4.003 11.62c.321.9273.555 1.8608.7 2.7999h.084c.244-1.085.504-2.0285.778-2.8306l4.003-11.5893h6.423z" stroke-width=".2"/></g></svg>

﻿<?xml version="1.0" encoding="utf-8"?>
<!DOCTYPE svg PUBLIC "-//W3C//DTD SVG 1.1//EN" "http://www.w3.org/Graphics/SVG/1.1/DTD/svg11.dtd">
<svg xmlns="http://www.w3.org/2000/svg" xmlns:xlink="http://www.w3.org/1999/xlink" version="1.1" baseProfile="full" width="220" height="220" viewBox="0 0 220.00 220.00" enable-background="new 0 0 220.00 220.00" xml:space="preserve">
	<ellipse fill="#16376C" fill-opacity="1" stroke-width="0.2" stroke-linejoin="round" cx="109.149" cy="109.225" rx="96.8333" ry="97.6667"/>
	<path fill="#339B2C" fill-opacity="1" stroke-width="0.2" stroke-linejoin="round" d="M 112.649,12.7246C 150.633,17.0465 167.901,35.8736 158.316,34.5579C 124.316,29.8911 116.239,40.167 115.649,40.5579C 87.2323,59.3911 95.6962,88.4034 109.982,106.891C 138.316,143.558 121.982,168.225 113.316,176.891C 83.5414,206.666 14.3158,179.224 15.8157,110.391C 16.9907,56.4646 59.5067,6.67789 112.649,12.7246 Z "/>
	<ellipse fill="none" stroke-width="5" stroke-linejoin="round" stroke="#16376C" stroke-opacity="1" cx="107.441" cy="109.808" rx="96.8334" ry="97.6667"/>
	<radialGradient id="SVGID_Stroke1_" cx="73.6056" cy="132.094" r="39.2039" gradientUnits="userSpaceOnUse">
		<stop offset="0" stop-color="#F3F8F8" stop-opacity="1"/>
		<stop offset="1" stop-color="#00EEFC" stop-opacity="1"/>
	</radialGradient>
	<path fill="#FFFFFF" fill-opacity="1" stroke-linejoin="round" stroke="url(#SVGID_Stroke1_)" d="M 47.6566,170.219L 64.8259,170.219L 65.6063,144.682L 67.9476,135.69L 72.6301,130.655L 78.4833,131.374L 84.7267,135.331L 93.3114,146.121L 96.8232,148.638L 105.408,149.358L 110.09,149.358L 110.481,142.524L 97.6036,130.655L 88.6288,124.9L 80.8246,120.584L 90.5798,109.434L 95.6526,99.7233L 97.6036,95.0476L 89.7994,97.925L 81.605,106.917L 75.7518,111.952L 71.8497,113.751L 64.0455,110.873L 59.3629,109.794L 56.6315,112.671L 56.6315,108.355L 55.0707,105.118L 43.7545,94.3283L 40.2426,93.9685L 40.6328,100.083L 47.2664,107.996L 50.7783,109.794L 36.7306,109.794L 41.0231,114.829L 53.5098,113.751L 46.8761,117.707L 42.5839,120.224L 41.8033,123.462L 45.7056,124.181L 49.2174,122.382L 53.5098,119.865L 56.6315,119.505L 59.7532,123.821L 56.2412,132.453L 52.7294,137.848L 49.6077,145.761L 47.6566,154.753L 47.6566,170.219 Z "/>
	<radialGradient id="SVGID_Stroke2_" cx="70.8741" cy="101.881" r="9.56018" gradientUnits="userSpaceOnUse">
		<stop offset="0" stop-color="#F3F8F8" stop-opacity="1"/>
		<stop offset="1" stop-color="#00EEFC" stop-opacity="1"/>
	</radialGradient>
	<path fill="#FFFFFF" fill-opacity="1" stroke-linejoin="round" stroke="url(#SVGID_Stroke2_)" d="M 70.6791,94.688L 65.9965,95.7669L 63.6553,99.3636L 62.4846,105.118L 64.8259,108.355L 67.9476,107.636L 69.1183,105.118L 71.9799,105.358L 72.2399,107.276L 74.0609,108.955L 77.1826,107.276L 78.0931,103.68L 79.2638,99.7233L 76.9225,95.7669L 70.6791,94.688 Z "/>
	<g>
		<path fill="#FFFFFF" fill-opacity="1" stroke-linejoin="round" stroke="#FFFFFF" stroke-opacity="1" d="M 142.684,104.146C 137.251,103.61 127.313,104.388 124.865,101.385C 122.418,98.3815 127.462,91.5978 129.639,86.9187C 131.816,82.2395 131.126,79.6651 127.052,83.4054C 122.977,87.1458 115.519,97.2013 115.849,102.457C 116.18,107.712 124.298,108.168 131.282,108.356C 138.266,108.544 144.116,108.463 146.579,107.498C 149.041,106.533 148.116,104.683 142.684,104.146 Z "/>
		<path fill="#FFFFFF" fill-opacity="1" stroke-linejoin="round" stroke="#FFFFFF" stroke-opacity="1" d="M 119.214,80.9888C 117.6,80.8302 120.236,79.2127 123.646,77.3958C 127.056,75.5793 131.24,73.564 133.391,72.8644C 135.543,72.1651 135.662,72.7818 136.847,76.4876C 138.032,80.1935 140.283,86.9883 139.746,87.8463C 139.209,88.7044 135.883,83.6255 131.288,81.7364C 126.693,79.8472 120.828,81.1476 119.214,80.9888 Z "/>
	</g>
	<g>
		<path fill="#FFFFFF" fill-opacity="1" stroke-linejoin="round" stroke="#FFFFFF" stroke-opacity="1" d="M 177.268,83.4004C 179.467,87.8947 185.186,95.2384 183.515,98.6441C 181.843,102.05 172.782,101.517 167.182,102.163C 161.583,102.809 159.446,104.633 165.089,105.933C 170.732,107.232 184.155,108.007 189.056,105.122C 193.957,102.237 190.338,95.6934 187.026,90.1658C 183.715,84.6383 180.713,80.1272 178.551,78.6944C 176.389,77.2613 175.068,78.906 177.268,83.4004 Z "/>
		<path fill="#FFFFFF" fill-opacity="1" stroke-linejoin="round" stroke="#FFFFFF" stroke-opacity="1" d="M 166.678,113.238C 167.333,114.574 164.455,113.331 160.999,111.587C 157.542,109.842 153.508,107.595 151.758,106.271C 150.008,104.947 150.543,104.545 153.522,101.77C 156.502,98.9954 161.927,93.8468 163.023,93.8357C 164.119,93.8247 160.885,98.9513 161.362,103.471C 161.838,107.991 166.024,111.903 166.678,113.238 Z "/>
	</g>
	<g>
		<path fill="#FFFFFF" fill-opacity="1" stroke-linejoin="round" stroke="#FFFFFF" stroke-opacity="1" d="M 141.146,66.9021C 144.38,62.9441 148.599,54.8228 152.718,54.4202C 156.837,54.0177 160.854,61.3338 164.276,65.3672C 167.699,69.4004 170.526,70.1509 168.957,65.111C 167.388,60.0711 161.424,49.2409 156.192,46.8701C 150.961,44.4991 146.462,50.5872 142.789,55.927C 139.116,61.2668 136.269,65.8584 135.968,68.2566C 135.667,70.6551 137.913,70.8601 141.146,66.9021 Z "/>
		<path fill="#FFFFFF" fill-opacity="1" stroke-linejoin="round" stroke="#FFFFFF" stroke-opacity="1" d="M 175.205,60.2213C 176.165,59.0446 176.406,61.9046 176.453,65.466C 176.499,69.0274 176.35,73.2898 175.948,75.3133C 175.547,77.3369 174.893,77.1214 170.728,76.1906C 166.563,75.2598 158.887,73.6136 158.328,72.7664C 157.77,71.9195 164.328,71.8717 168.448,69.2414C 172.566,66.6109 174.245,61.3977 175.205,60.2213 Z "/>
	</g>
	<g>
		<path fill="#000000" fill-opacity="1" stroke-width="0.2" stroke-linejoin="round" d="M 188.435,15.1286L 182.835,15.1286L 182.835,31.0885L 178.355,31.0885L 178.355,15.1286L 172.755,15.1286L 172.755,11.4886L 188.435,11.4886L 188.435,15.1286 Z "/>
		<path fill="#000000" fill-opacity="1" stroke-width="0.2" stroke-linejoin="round" d="M 213.355,31.0885L 208.875,31.0885L 208.875,19.3592C 208.875,18.0933 208.932,16.6949 209.046,15.1636L 208.936,15.1636C 208.709,16.3682 208.503,17.2344 208.319,17.7624L 203.725,31.0885L 200.116,31.0885L 195.439,17.898C 195.311,17.5421 195.105,16.6306 194.822,15.1636L 194.7,15.1636C 194.817,17.0973 194.875,18.7932 194.875,20.2516L 194.875,31.0885L 190.955,31.0885L 190.955,11.4886L 197.364,11.4886L 201.367,23.1086C 201.688,24.0359 201.922,24.9694 202.067,25.9085L 202.151,25.9085C 202.395,24.8235 202.655,23.88 202.929,23.0779L 206.932,11.4886L 213.355,11.4886L 213.355,31.0885 Z "/>
	</g>
</svg>
